src/assets/duotone/FilterTick.svg

<svg width="24" height="24" viewBox="0 0 24 24"  xmlns="http://www.w3.org/2000/svg">
<path d="M17.9199 10.12C17.5899 10.04 17.2399 10 16.8799 10C14.2599 10 12.1299 12.13 12.1299 14.75C12.1299 15.64 12.3799 16.48 12.8199 17.2C13.1899 17.82 13.6999 18.35 14.3199 18.73C15.0599 19.22 15.9399 19.5 16.8799 19.5C18.6199 19.5 20.1299 18.57 20.9499 17.2C21.3899 16.48 21.6299 15.64 21.6299 14.75C21.6299 12.49 20.0499 10.59 17.9199 10.12ZM19.2499 14.13L16.7099 16.47C16.5699 16.6 16.3799 16.67 16.1999 16.67C16.0099 16.67 15.8199 16.6 15.6699 16.45L14.4999 15.28C14.2099 14.99 14.2099 14.51 14.4999 14.22C14.7899 13.93 15.2699 13.93 15.5599 14.22L16.2198 14.88L18.2299 13.03C18.5399 12.75 19.0099 12.77 19.2899 13.07C19.5699 13.38 19.5499 13.85 19.2499 14.13Z" />
<path opacity="0.4" d="M5.41016 2H18.5802C19.6802 2 20.5802 2.90999 20.5802 4.01999V6.23999C20.5802 7.04999 20.0802 8.06 19.5802 8.56L15.2902 12.4C14.6902 12.91 14.2902 13.92 14.2902 14.72V19.06C14.2902 19.67 13.8902 20.47 13.3902 20.78L11.9902 21.69C10.6902 22.5 8.90021 21.59 8.90021 19.97V14.62C8.90021 13.91 8.50016 13 8.10016 12.5L4.31018 8.45999C3.81018 7.94999 3.41016 7.05 3.41016 6.44V4.12C3.42016 2.91 4.32016 2 5.41016 2Z" />
</svg>

<?xml version="1.0" encoding="UTF-8"?>
<svg width="24" height="24" viewBox="0 0 24 24" xmlns="http://www.w3.org/2000/svg">
 <path d="m17.92 10.12c-0.33-0.08-0.68-0.12-1.04-0.12-2.62 0-4.75 2.13-4.75 4.75 0 0.89 0.25 1.73 0.69 2.45 0.37 0.62 0.88 1.15 1.5 1.53 0.74 0.49 1.62 0.77 2.56 0.77 1.74 0 3.25-0.93 4.07-2.3 0.44-0.72 0.68-1.56 0.68-2.45 0-2.26-1.58-4.16-3.71-4.63zm1.33 4.01-2.54 2.34c-0.14 0.13-0.33 0.2-0.51 0.2-0.19 0-0.38-0.07-0.53-0.22l-1.17-1.17c-0.29-0.29-0.29-0.77 0-1.06s0.77-0.29 1.06 0l0.6599 0.66 2.0101-1.85c0.31-0.28 0.78-0.26 1.06 0.04 0.28 0.31 0.26 0.78-0.04 1.06z"/>
 <path d="m5.4102 2h13.17c1.1 0 2 0.90999 2 2.02v2.22c0 0.81-0.5 1.82-1 2.32l-4.29 3.84c-0.6 0.51-1 1.52-1 2.32v4.34c0 0.61-0.4 1.41-0.9 1.72l-1.4 0.91c-1.3 0.81-3.09-0.1-3.09-1.72v-5.35c0-0.71-0.40005-1.62-0.80005-2.12l-3.79-4.04c-0.5-0.51-0.90002-1.41-0.90002-2.02v-2.32c0.01-1.21 0.91-2.12 2-2.12z" opacity=".4"/>
</svg>
